X:027
U: ~ = !turn!
%%topmargin 3cm
T:Carnanban
B:Traditional Irish Fiddle Tunes. Randy Miller and Jack Perron.
Z:Transcribed by Ralph Palmer
S:Na Fili
R:Reel
L:1/8
M:C|
K:G
~G2 BG dGBG | (3.F.F.F AF dFAF | ~G2 BG dGBG | cBAG FADF :|
((3Bcd) gd BG ~G2 | ABcd edBd | ((3Bcd) gd BG ~G2 | cBAG FA D2 |
((3Bcd) gd BG ~G2 | ABcd e3 d | ((3Bcd) gd BABd | eBAG FA ((3DEF) |]
